!!!COM: Joplin, Scott
!!!CDT: 1868/11/24/-1917/04/01/
!!!OTL: The Crush Collision March
!!!ODT: 1896///
**kern	**kern	**dynam
*staff2	*staff1	*staff1/2
*Ipiano	*Ipiano	*Ipiano
*>[I,A,A1,A,A2,B,B1,B,B2,C,C1,C,C2,D,D1,D,D2,E,E1,E,E2]	*>[I,A,A1,A,A2,B,B1,B,B2,C,C1,C,C2,D,D1,D,D2,E,E1,E,E2]	*>[I,A,A1,A,A2,B,B1,B,B2,C,C1,C,C2,D,D1,D,D2,E,E1,E,E2]
*>norep[I,A,A2,B,B2,C,C2,D,D2,E,E2]	*>norep[I,A,A2,B,B2,C,C2,D,D2,E,E2]	*>norep[I,A,A2,B,B2,C,C2,D,D2,E,E2]
*>I	*>I	*>I
*clefF4	*clefG2	*clefG2
*k[b-]	*k[b-]	*k[b-]
*met(C)	*met(C)	*met(C)
*M4/4	*M4/4	*M4/4
*MM132	*MM132	*MM132
4F FF	4ff f	.
=1	=1	=1
8EL EE	8eeL e	.
8D DD	8dd d	.
8C# CC#	8cc# c#	.
8BB-J BBB-	8b-J B-	.
4AA AAA	4a A	.
4F FF	4ff f	.
=2	=2	=2
8EL EE	8eeL e	.
8D DD	8dd d	.
8C# CC#	8cc# c#	.
8BB-J BBB-	8b-J B-	.
4AA AAA	4a A	.
4GG# GGG#	4g# G#	.
=3	=3	=3
4AA AAA	4a A	.
4BB- BBB-	4b- B-	.
4AA AAA	4a A	.
4A AA	4aa ee cc# a	.
=4	=4	=4
8DL DD	8dddL aa ff dd	.
8E EE	8ccc# cc#	.
8F FF	8ddd aa ff dd	.
8EJ EE	8ccc#J cc#	.
4D DD	4ddd aa ff dd	.
4r	4f	.
=5!|:	=5!|:	=5!|:
*>A	*>A	*>A
*	*^	*
4D DD	2a	4r	mf
4r	.	4f d A	.
4E EE	2a	4r	.
4r	.	4g e c# A	.
=6	=6	=6	=6
4F FF	2a	4r	.
4r	.	4f d A	.
4F# FF#	2a	4r	.
4A AA	.	4f# d c	.
*	*v	*v	*
=7	=7	=7
4B- BB-	4.g	.
4d B- G	.	.
.	8a	.
4G GG	4b-	.
4d B- G	4dd	.
=8	=8	=8
4D DD	8aL	.
.	8dd	.
4f d A	8cc#	.
.	8ddJ	.
4D DD	2a	.
4f d A	.	.
=9	=9	=9
4B- BB-	4.g	.
4d B- G	.	.
.	8a	.
4G GG	4b-	.
4d B- G	4dd	.
=10	=10	=10
4D DD	8aL	.
.	8dd	.
4f d A	8cc#	.
.	8ddJ	.
4D DD	2ff dd a	.
4f d A	.	.
=11	=11	=11
4E EE	2ee bn g# e	.
4d Bn G# E	.	.
4E EE	8ffL	.
.	8ee	.
4d B G# E	8dd#	.
.	8eeJ	.
=12	=12	=12
4A AA	4aa ee cc# a	.
4A AA	4aa ee cc# a	.
(8AAL	(8AL	.
8GG#J	8G#J	.
4AA)	4A)	.
=13	=13	=13
*	*^	*
4D DD	2a	4r	.
4r	.	4f d A	.
4E EE	2a	4r	.
4r	.	4g e c# A	.
=14	=14	=14	=14
4F FF	2a	4r	.
4r	.	4f d A	.
4F# FF#	2a	4r	.
4A AA	.	4f# d c	.
*	*v	*v	*
=15	=15	=15
4B- BB-	4.g	.
4d B- G	.	.
.	8a	.
4G GG	4b-	.
4d B- G	4dd	.
=16	=16	=16
4D DD	8aL	.
.	8dd	.
4f d A	8cc#	.
.	8ddJ	.
4D DD	2a	.
4f d A	.	.
=17	=17	=17
4F FF	4.dd a	.
4f d A	.	.
.	8ee a	.
4D DD	4ff a	.
4f d A	4dd a	.
=18	=18	=18
4G GG	4bb- dd b-	.
4B- BB-	4gg# dd g#	.
4A AA	4aa ee cc# a	.
4E EE	4ee bn g# e	.
=19	=19	=19
4AA AAA	2aa ee cc# a	.
4g e c# A	.	.
4C# CC#	8bb-L	.
.	8aa	.
4g e c# A	8gg#	.
.	8aaJ	.
=20	=20	=20
*>A1	*>A1	*>A1
4D DD	4ddd aa ff dd	.
4A AA	4r	.
4F FF	2r	.
4E EE	.	.
=21:|!	=21:|!	=21:|!
*>A2	*>A2	*>A2
4D DD	4ddd aa ff dd	.
4r	4ff a	.
2r	4ee a	.
.	4dd a	.
=22!|:	=22!|:	=22!|:
*>B	*>B	*>B
*	*^	*
4C CC	[1ee	4r	.
4D DD	.	4b- g	.
4E EE	.	4b- g	.
4F FF	.	4b- g	.
=23	=23	=23	=23
4G GG	4ee]	4b- g	.
4e c B-	4r	4cc b-	.
4C CC	2r	4dd b-	.
4e c B-	.	4ee b-	.
=24	=24	=24	=24
4F FF	(2.aa	4r	.
4G GG	.	4cc a	.
4A AA	.	4cc a	.
4B- BB-	4ff)	4dd f	.
*	*v	*v	*
=25	=25	=25
4A AA	4ff cc f	.
4f c A	4ccc cc	.
4F FF	4.ccc cc	.
4f c A	.	.
.	8aa a	.
=26	=26	=26
*	*^	*
4G GG	[1bb- b-	4r	.
4c C	.	4ee cc	.
4B- BB-	.	4ee cc	.
4G GG	.	4ee cc	.
=27	=27	=27	=27
4E EE	4bb-]	4ee cc	.
4e c B-	4r	4ccc cc	.
4C CC	2r	4.ccc cc	.
4e c B-	.	.	.
.	.	8gg# g#	.
=28	=28	=28	=28
4F FF	[1aa a	4r	.
4c C	.	4ff cc	.
4A AA	.	4ff cc	.
4G GG	.	4ff cc	.
*	*v	*v	*
=29	=29	=29
4F FF	4aa] ff cc	.
4f c A	4ffn a	.
4f c A	4ee a	.
4f c A	4dd a	.
=30	=30	=30
*	*^	*
4AA AAA	[1cc#	4r	.
4BBn BBBn	.	4g e	.
4C# CC#	.	4g e	.
4D DD	.	4g e	.
*	*v	*v	*
=31	=31	=31
4E EE	4cc#] g e	.
4c# A G	4aa a	.
4C#	4ee e	.
4c# A	4gg g	.
=32	=32	=32
*	*^	*
4D	1ff f	4r	.
4d A	.	4dd a	.
4d A	.	4dd a	.
4d A	.	4dd a	.
*	*v	*v	*
=33	=33	=33
4F# FF#	4aa dd#	.
4d# c A	4ccc dd#	.
4d# c A	4bbn dd#	.
4d# c A	4aa dd#	.
=34	=34	=34
*	*^	*
4G GG	[1gg g	4r	.
4c C	.	4ee cc	.
4Bn BBn	.	4ee cc	.
4A AA	.	4ee cc	.
*	*v	*v	*
=35	=35	=35
4G GG	4gg] dd bn	.
4f d Bn G	4gg ff	.
4G GG	4aa ff	.
4f d B G	4bbn ff	.
=36	=36	=36
*>B1	*>B1	*>B1
4c C	2ccc gg ee	.
4e E	.	.
4d D	4r	.
4Bn BBn	4gg ff dd	.
=37	=37	=37
4c C	4ccc gg ee cc	.
4r	4ff a	.
2r	4ee a	.
.	4dd a	.
=38:|!	=38:|!	=38:|!
*>B2	*>B2	*>B2
4c C	2ccc gg ee	.
4e E	.	.
4d D	4r	.
4Bn BBn	4gg ff dd	.
=39	=39	=39
4c C	4ccc gg ee cc	.
4r	4gg	.
2r	4ee	.
.	4cc	.
=40!|:	=40!|:	=40!|:
*>C	*>C	*>C
4G GG	2.dd b-	.
4e c B-	.	.
4C CC	.	.
4e c B-	(8eeL	.
.	8ggJ)	.
=41	=41	=41
4E EE	4dd b-	.
4e c B-	4dd- b-	.
4C CC	4cc b-	.
4e c B-	(8ffL	.
.	8eeJ)	.
=42	=42	=42
4F FF	2.dd	.
4f c A	.	.
4C CC	.	.
4f c A	(8ffL	.
.	8aaJ)	.
=43	=43	=43
4F FF	4dd a	.
4f c A	4dd- a	.
4A AA	4cc a	.
4f c A	(8ffL	.
.	8aaJ)	.
=44	=44	=44
4G GG	(8dddL bb- gg ee	.
.	8ee	.
4e c B-	8gg	.
.	8bb-J)	.
4C CC	4ddd bb- gg ee	.
4e c B-	4ddd bb- gg ee	.
=45	=45	=45
4E EE	(8dddL bb- gg ee	.
.	8ccc	.
4e c B-	8bb-	.
.	8ggJ	.
4C CC	8eeL	.
.	8dd	.
4e c B-	8dd-	.
.	8ccJ)	.
=46	=46	=46
4A AA	(8cccL aa ff cc	.
.	8cc	.
4f c A	8ff	.
.	8aaJ)	.
4F FF	4ccc aa ff cc	.
4f c A	4ccc aa ff cc	.
=47	=47	=47
4A AA	(8cccL	.
.	8aa	.
4f c A	8ff	.
.	8ccJ	.
4F FF	8aaL	.
.	8ff	.
4f c A	8cc)	.
.	8aJ	.
=48	=48	=48
4G GG	2.dd b-	.
4e c B-	.	.
4C CC	.	.
4e c B-	(8eeL	.
.	8ggJ)	.
=49	=49	=49
4E EE	4dd b-	.
4e c B-	4dd- b-	.
4C CC	4cc b-	.
4e c B-	(8ffL	.
.	8eeJ)	.
=50	=50	=50
4F FF	2.dd a	.
4f c A	.	.
4C CC	.	.
4f c A	(8ffL	.
.	8aaJ)	.
=51	=51	=51
4F FF	4dd a	.
4f c A	4dd a	.
4A AA	4ff a	.
4f c A	4aa a	.
*clefG2	*	*
=52	=52	=52
4cc a f# d	(8dddL aa ff# dd	.
.	8dd	.
4cc a f# d	8ff#	.
.	8aaJ)	.
4b- g	(8dddL gg dd	.
.	8dd	.
4b- g	8gg	.
.	8bb-J)	.
=53	=53	=53
4g e c# A	(8aaL ee cc# a	.
.	8a	.
4g e c# A	8cc#	.
.	8eeJ)	.
4fn d	(8aaL dd a	.
.	8a	.
4f d	8dd	.
.	8ffnJ)	.
=54	=54	=54
4b- f d B-	(8ddL	.
.	8ff	.
4g# f d Bn	8ee	.
.	8ddJ	.
4a f c	8ddL	.
.	8cc	.
4a f c	8ff)	.
.	8aaJ	.
*clefF4	*	*
=55	=55	=55
*>C1	*>C1	*>C1
8CL CC	2gg b-	.
8C# CC#	.	.
8D DD	.	.
8EJ EE	.	.
4F FF	4ff a	.
4r	4cc	.
=56:|!	=56:|!	=56:|!
*>C2	*>C2	*>C2
8CL CC	2gg b-	.
8C# CC#	.	.
8D DD	.	.
8EJ EE	.	.
4F FF	4ff a	.
4r	4f	.
=57	=57	=57
*>D	*>D	*>D
*k[b-e-]	*k[b-e-]	*k[b-e-]
4BB-	2dd	.
4d B- F	.	.
4BB-	4.cc	.
4d B- F	.	.
.	8dd	.
=58	=58	=58
4C	2ee-	.
4e- A F	.	.
4FF	2aa ee- a	.
4e- A F	.	.
=59	=59	=59
4C	2ee-	.
4e- A F	.	.
4FF	4.dd	.
4e- A F	.	.
.	8ee-	.
=60	=60	=60
4BB-	2ff	.
4d B- F	.	.
4D	2bb- ff dd b-	.
4d B- F	.	.
=61	=61	=61
4BBn	2ddd dd	.
4f d Bn G	.	.
4GG	4.ddd dd	.
4f d B G	.	.
.	8bbn bn	.
=62	=62	=62
4C	2ccc ee- cc	.
4e- c G	.	.
4E-	2gg ee- g	.
4e- c G	.	.
=63	=63	=63
4AA	2ccc ee- cc	.
4e- c A F	.	.
4FF	4.ccc ee- cc	.
4e- c A F	.	.
.	8aa a	.
=64	=64	=64
4BB-	2bb- ff dd b-	.
4d B- F	.	.
4D	2ff dd b- f	.
4d B- F	.	.
=65	=65	=65
4BB-	2dd	.
4d B- F	.	.
4BB-	4.cc	.
4d B- F	.	.
.	8dd	.
=66	=66	=66
4C	2ee-	.
4e- A F	.	.
4FF	2aa ee- a	.
4e- A F	.	.
=67	=67	=67
4C	2ee-	.
4e- A F	.	.
4FF	4.dd	.
4e- A F	.	.
.	8ee-	.
=68	=68	=68
4BB-	2ff	.
4d B- F	.	.
4D	2bb- ff dd b-	.
4d B- F	.	.
=69	=69	=69
4E-	2bb- b-	.
4e- B- G	.	.
4En	4.gg g	.
4c# B- G	.	.
.	8bb- b-	.
=70	=70	=70
4F	2ddd dd	.
4d B-	.	.
4D	4.fff ff	.
4d B- F	.	.
.	8ddd dd	.
=71	=71	=71
4C	2ccc een cc	.
4en c B-	.	.
4FF	2ccc ee- cc	.
4e- c A F	.	.
=72	=72	=72
*>D1	*>D1	*>D1
4BB-	4.bb- ff dd b-	.
4d B- F	.	.
.	8f	.
4FF	8gL	.
.	8a	.
4d B- F	8b-	.
.	8ccJ	.
=73:|!	=73:|!	=73:|!
*>D2	*>D2	*>D2
4B- BB-	2.bb- ff dd b-	.
4F FF	.	.
4BB- BBB-	.	.
4D DD	4r	.
=74!|:	=74!|:	=74!|:
*>E	*>E	*>E
4G GG	4r	.
4B- BB-	4ggg ddd bb- gg	.
4A AA	4fff# ddd ccc ff#	.
4r	4ddd dd	.
=75	=75	=75
4r	4ggg gg	.
4G GG	4bbb- ddd bb-	.
4F# FF#	4aaa ccc aa	.
4D DD	4ddd aa ff# dd	.
=76	=76	=76
2G GG	2ggg ddd bb- gg	.
2A AA	2aa een cc# a	.
=77	=77	=77
4D DD	4ddd aa ff# dd	.
4D DD	4ddd aa ff# dd	.
4r	2r	.
4C CC	.	.
=78	=78	=78
4F FF	4r	.
4A AA	4fff ccc aa ff	.
4G GG	4eeen ccc bb- een	.
4r	4ccc cc	.
=79	=79	=79
4r	4fff ff	.
4F FF	4aaa ccc aa	.
4En EEn	4ggg bb- gg	.
4C CC	4eeen bb- gg een	.
=80	=80	=80
2F FF	2fffn ccc aa ffn	.
2C CC	2eeen bb- gg een	.
=81	=81	=81
4F FF	4fff ccc aa ff	.
4F FF	4fff ccc aa ff	.
4r	4r	.
4EE-	4a f# c	.
=82	=82	=82
(8EEnL	4g en c	ff
8EE-	.	.
8DD	4g fn Bn	.
8DD-J	.	.
8CCL	4g e c	.
8DD-	.	.
8DDn	4g f B	.
8EE-J)	.	.
=83	=83	=83
(8EEnL	4g en c	ff
8EE-	.	.
8DD	4g f Bn	.
8DD-J)	.	.
4CC	4g e c	.
4r	4r	.
*clefG2	*	*
=84	=84	=84
(aq	bnq	.
2b-)	2cc	.
aq	bq	.
2b-	2cc	.
=85	=85	=85
(aq	bnq	.
4b-)	4cc	.
(aq	bq	.
4b-)	4cc	.
4r	4r	.
*clefF4	*	*
4CC	4cc b- en	.
=86	=86	=86
8AAAL	4cc a f	.
8AAA-	.	.
8GGG	4cc b- en	.
8GGG-J	.	.
8FFFL	4cc a f	.
8GGG-	.	.
8GGGn	4cc b- e	.
8AAA-J	.	.
=87	=87	=87
(8AAAL	4cc a f	.
8AAA-	.	.
8GGG	4cc b- en	.
8GGG-J)	.	.
4FFF	4cc a f	.
4r	4r	.
*clefG2	*	*
=88	=88	=88
(ddq	eenq	.
4ee-')	4ff'	.
ddq	eeq	.
4ee-'	4ff'	.
(ddq	eeq	.
4ee-')	4ff'	.
(ddq	eeq	.
4ee-')	4ff'	.
=89	=89	=89
ddq	eenq	.
4ee-	4ff'	.
4r	4r	.
*	*clefF4	*clefF4
2d; D;	2F; E-; C; AA;	ff
=90	=90	=90
*clefF4	*clefG2	*clefG2
4BB-	2dd d	mf
4B- F	.	.
4BB-	4.cc c	.
4B- F	.	.
.	8dd d	.
=91	=91	=91
4C	2ee- e-	.
4A F	.	.
4FF	2aa ee- a	.
4A F	.	.
=92	=92	=92
4C	2ee- e-	.
4A F	.	.
4FF	4.dd d	.
4A F	.	.
.	8ee- e-	.
=93	=93	=93
4BB-	2ff dd b- f	.
4d B- F	.	.
4D	2bb- ff dd b-	.
4d B- F	.	.
=94	=94	=94
4BBn	2ddd dd	.
4f d Bn G	.	.
4GG	4.ddd dd	.
4f d B G	.	.
.	8bbn bn	.
=95	=95	=95
4C	2ccc ee- cc	.
4e- c G	.	.
4E-	2gg ee- g	.
4e- c G	.	.
=96	=96	=96
4AA	2ccc ee- cc	.
4e- A F	.	.
4FF	4.ccc ee- cc	.
4e- A F	.	.
.	8aa a	.
=97	=97	=97
4BB-	2bb- ff dd b-	.
4d B- F	.	.
4D	2ff dd b- f	.
4d B- F	.	.
=98	=98	=98
4BB-	2dd d	.
4B- F	.	.
4BB-	4.cc c	.
4B- F	.	.
.	8dd d	.
=99	=99	=99
4C	2ee- e-	.
4A F	.	.
4FF	2aa ee- a	.
4A F	.	.
=100	=100	=100
4C	2ee- e-	.
4A F	.	.
4FF	4.dd d	.
4A F	.	.
.	8ee- e-	.
=101	=101	=101
4BB-	2ff dd b- f	.
4d B- F	.	.
4D	2bb- ff dd b-	.
4d B- F	.	.
=102	=102	=102
4E-	2bb- b-	.
4e- B- G	.	.
4En	4.gg g	.
4c# B- G	.	.
.	8bb- b-	.
=103	=103	=103
4F	2ddd dd	.
4d B-	.	.
4D	4.fff ff	.
4d B- F	.	.
.	8ddd dd	.
=104	=104	=104
4C	2ccc een cc	.
4en c B-	.	.
4FF	2ccc ee- cc	.
4e- A F	.	.
=105	=105	=105
*>E1	*>E1	*>E1
4B- BB-	2.bb- ff dd b-	.
4F FF	.	.
4BB- BBB-	.	.
4D DD	4r	.
=106:|!	=106:|!	=106:|!
*>E2	*>E2	*>E2
2BB- BBB-	2bb- ff dd b-	.
4r	4r	.
==	==	==
*-	*-	*-
!!!ENC: Craig Stuart Sapp
!!!END: 2004/11/28
!!!EEV: 2018/06/01
